cc-by-sa/knowledge/modules/type_in_china_japan_and_korea/lessons/type_classification_in_cjk_korean/images/thumbnail.svg

<svg width="1920" height="1080" viewBox="0 0 1920 1080" fill="none" xmlns="http://www.w3.org/2000/svg">
<path d="M149.001 170.6V192H209.201C204.401 232.8 181.601 262 138.801 284L153.601 304.2C214.801 273.2 235.801 225.8 235.801 170.6H149.001ZM310.601 222H284.801V151.6H258.401V335.6H284.801V243.8H310.601V222Z" fill="#1A73E8"/>
<path d="M356.585 169.2H330.185V290.8H346.185C372.985 290.8 402.585 289.2 433.185 282.8L430.585 261.2C404.785 266.2 379.785 268.2 356.585 268.8V169.2ZM494.585 221.2H468.785V151.6H442.385V335.6H468.785V243H494.585V221.2Z" fill="#1A73E8"/>
<path d="M541.97 190.2H601.57V168.8H515.77V292.2H531.37C563.37 292.2 588.57 291.2 616.37 286.2L613.77 264.4C589.97 268.4 568.17 269.8 541.97 270.2V190.2ZM679.57 219.8H652.77V151.8H626.37V336.4H652.77V241.6H679.57V219.8Z" fill="#1A73E8"/>
<path d="M726.154 238.6H784.554V167.4H699.954V188.4H758.554V217.8H700.154V293.8H715.754C747.754 293.8 773.154 292.6 800.754 287.6L798.354 266.2C774.354 270.4 752.554 271.8 726.154 272V238.6ZM863.554 221.2H837.154V151.6H810.754V336.4H837.154V243H863.554V221.2Z" fill="#1A73E8"/>
<path d="M208.201 527.8H172.001V501.6H208.201V527.8ZM234.201 455H208.201V481.2H172.001V455H146.001V548.6H234.201V455ZM193.201 564H166.801V622.8H292.201V601.8H193.201V564ZM285.601 493.8V441.8H259.201V577.4H285.601V515.4H310.001V493.8H285.601Z" fill="#1A73E8"/>
<path d="M332.985 460.6V482H393.185C388.385 522.8 365.585 552 322.785 574L337.585 594.2C398.785 563.2 419.785 515.8 419.785 460.6H332.985ZM494.585 512H468.785V441.6H442.385V625.6H468.785V533.8H494.585V512Z" fill="#1A73E8"/>
<path d="M567.57 469.4C580.57 469.4 589.37 476 589.37 487.2C589.37 498.6 580.57 505 567.57 505C554.57 505 545.37 498.6 545.37 487.2C545.37 476 554.57 469.4 567.57 469.4ZM567.57 525C594.57 525 614.17 509.6 614.17 487.2C614.17 465 594.57 449.4 567.57 449.4C540.37 449.4 520.77 465 520.77 487.2C520.77 509.6 540.37 525 567.57 525ZM626.37 529.8C587.17 535.2 542.17 535.4 507.97 535.4L510.97 556.8C523.77 556.8 538.17 556.8 553.17 556.2V620.6H579.57V554.8C595.57 553.6 611.77 552 627.97 549L626.37 529.8ZM638.17 441.8V565.6H601.17V585.6H638.17V625.8H664.57V441.8H638.17Z" fill="#1A73E8"/>
<path d="M755.554 548C761.954 549.2 768.554 549.8 775.754 549.8C782.954 549.8 789.754 549.2 796.154 548V583.2H755.554V548ZM775.754 471.6C801.354 471.6 818.554 482 818.554 500.4C818.554 518.6 801.354 529.2 775.754 529.2C750.154 529.2 733.154 518.6 733.154 500.4C733.154 482 750.154 471.6 775.754 471.6ZM822.354 583.2V538.2C836.154 529.6 844.554 516.4 844.554 500.4C844.554 470.2 815.554 450.8 775.754 450.8C736.154 450.8 707.154 470.2 707.154 500.4C706.954 516.4 715.354 529.6 729.354 538.2V583.2H692.554V604.6H859.354V583.2H822.354Z" fill="#1A73E8"/>
<path d="M208.401 746H181.801V772.8C181.801 807 167.801 842.2 136.801 856.8L152.601 878.2C173.401 868 187.201 848.6 195.201 825.2C202.801 847.2 215.801 865 235.001 874.8L251.001 854C221.401 839.4 208.401 806 208.401 772.8V746ZM311.601 802.6H284.801V731.8H258.401V916H284.801V824.6H311.601V802.6Z" fill="#1A73E8"/>
<path d="M331.185 778.4V835.2H346.985C383.785 835.2 407.185 834.4 432.785 829.6L430.585 808.4C407.585 812.6 387.385 813.8 357.385 814V798H414.985V742.6H330.985V763.8H388.985V778.4H331.185ZM408.985 896C384.985 896 372.585 891.4 372.585 881.2C372.585 871 384.985 866.4 408.985 866.4C432.985 866.4 445.385 871 445.385 881.2C445.385 891.4 432.985 896 408.985 896ZM408.985 846.2C370.585 846.2 346.585 859 346.585 881.2C346.585 903.2 370.585 916.2 408.985 916.2C447.385 916.2 471.385 903.2 471.385 881.2C471.385 859 447.385 846.2 408.985 846.2ZM469.585 774.8V732H443.185V842.4H469.585V796.4H493.985V774.8H469.585Z" fill="#1A73E8"/>
<path d="M552.77 854.4C542.77 854.4 535.57 846.4 535.57 832.6C535.57 818.8 542.77 810.6 552.77 810.6C562.77 810.6 569.97 818.8 569.97 832.6C569.97 846.4 562.77 854.4 552.77 854.4ZM552.77 788.6C529.17 788.6 512.37 806.8 512.37 832.6C512.37 858.2 529.17 876.4 552.77 876.4C576.37 876.4 593.17 858.2 593.17 832.6C593.17 806.8 576.37 788.6 552.77 788.6ZM565.77 736.8H539.77V759.6H508.37V780.6H596.37V759.6H565.77V736.8ZM641.57 731.6V806.8H627.57V735.2H602.97V908.2H627.57V828H641.57V915.8H666.57V731.6H641.57Z" fill="#1A73E8"/>
<path d="M755.554 838C761.954 839.2 768.554 839.8 775.754 839.8C782.954 839.8 789.754 839.2 796.154 838V873.2H755.554V838ZM775.754 761.6C801.354 761.6 818.554 772 818.554 790.4C818.554 808.6 801.354 819.2 775.754 819.2C750.154 819.2 733.154 808.6 733.154 790.4C733.154 772 750.154 761.6 775.754 761.6ZM822.354 873.2V828.2C836.154 819.6 844.554 806.4 844.554 790.4C844.554 760.2 815.554 740.8 775.754 740.8C736.154 740.8 707.154 760.2 707.154 790.4C706.954 806.4 715.354 819.6 729.354 828.2V873.2H692.554V894.6H859.354V873.2H822.354Z" fill="#1A73E8"/>
<path d="M1225.6 232.8H1199V323.6H1172.2V146H1199V210.4H1225.6V232.8ZM1062.2 160H1145.6V190.2C1145.6 205.533 1143.27 218.6 1138.6 229.4C1133.93 240.067 1126.33 249.933 1115.8 259C1105.4 267.933 1090.73 277.6 1071.8 288L1056 267.6C1072.8 258.933 1085.6 251 1094.4 243.8C1103.2 236.6 1109.4 228.867 1113 220.6C1116.6 212.333 1118.4 202.2 1118.4 190.2V182.6H1062.2V160Z" fill="#1A73E8"/>
<path d="M1403.92 232.8H1377.32V323.6H1350.52V146H1377.32V210.4H1403.92V232.8ZM1335.92 248.2L1339.12 270C1316.19 274.533 1288.92 276.8 1257.32 276.8H1238.92V160.2H1265.52V254.4C1292.45 254 1315.92 251.933 1335.92 248.2Z" fill="#1A73E8"/>
<path d="M1582.24 232.8H1555.64V323.6H1528.84V146H1555.64V210.4H1582.24V232.8ZM1515.04 252L1518.24 273.4C1507.44 275.4 1495.64 277 1482.84 278.2C1470.17 279.267 1454.97 279.8 1437.24 279.8H1418.64V160.2H1502.64V182.6H1445.44V257.6C1472.91 257.2 1496.11 255.333 1515.04 252Z" fill="#1A73E8"/>
<path d="M1760.56 232.8H1733.96V323.6H1707.16V146H1733.96V210.4H1760.56V232.8ZM1693.76 254.8L1696.96 276.2C1685.63 278.2 1673.76 279.733 1661.36 280.8C1649.09 281.733 1633.76 282.2 1615.36 282.2H1596.56V206.6H1653.16V181H1596.16V158.8H1679.76V228.4H1623.16V260.4C1637.96 260.267 1650.76 259.733 1661.56 258.8C1672.36 257.867 1683.09 256.533 1693.76 254.8Z" fill="#1A73E8"/>
<path d="M1225.8 495.6V518H1199.4V578.8H1172.6V446H1199.4V495.6H1225.8ZM1146 550.2H1059.2V457H1085.2V483.6H1120V457H1146V550.2ZM1120 505.4H1085.2V528.2H1120V505.4ZM1111.6 605.2H1203.6V627.2H1101.6C1090.27 627.2 1084.6 621.533 1084.6 610.2V565.2H1111.6V605.2Z" fill="#1A73E8"/>
<path d="M1403.92 532.8H1377.32V623.6H1350.52V446H1377.32V510.4H1403.92V532.8ZM1240.52 460H1323.92V490.2C1323.92 505.533 1321.59 518.6 1316.92 529.4C1312.25 540.067 1304.65 549.933 1294.12 559C1283.72 567.933 1269.05 577.6 1250.12 588L1234.32 567.6C1251.12 558.933 1263.92 551 1272.72 543.8C1281.52 536.6 1287.72 528.867 1291.32 520.6C1294.92 512.333 1296.72 502.2 1296.72 490.2V482.6H1240.52V460Z" fill="#1A73E8"/>
<path d="M1567.84 446V623.6H1541.04V587H1504.84V565.6H1541.04V446H1567.84ZM1421.44 489.8C1421.44 482.067 1423.51 475.267 1427.64 469.4C1431.91 463.533 1437.71 459 1445.04 455.8C1452.51 452.6 1461.04 451 1470.64 451C1480.24 451 1488.71 452.6 1496.04 455.8C1503.51 459 1509.31 463.533 1513.44 469.4C1517.71 475.267 1519.84 482.067 1519.84 489.8C1519.84 497.533 1517.71 504.333 1513.44 510.2C1509.31 515.933 1503.51 520.4 1496.04 523.6C1488.71 526.8 1480.24 528.4 1470.64 528.4C1461.04 528.4 1452.51 526.8 1445.04 523.6C1437.71 520.4 1431.91 515.933 1427.64 510.2C1423.51 504.333 1421.44 497.533 1421.44 489.8ZM1449.04 491.2C1449.04 496.133 1450.97 500.067 1454.84 503C1458.84 505.933 1464.11 507.4 1470.64 507.4C1477.17 507.4 1482.37 505.933 1486.24 503C1490.24 500.067 1492.24 496.133 1492.24 491.2V488.2C1492.24 483.267 1490.24 479.333 1486.24 476.4C1482.37 473.467 1477.17 472 1470.64 472C1464.11 472 1458.84 473.467 1454.84 476.4C1450.97 479.333 1449.04 483.267 1449.04 488.2V491.2ZM1483.64 558.8V622H1457.04V560.2C1437.84 560.733 1423.24 561 1413.24 561L1411.04 538.6C1433.71 538.6 1455.57 538.133 1476.64 537.2C1497.71 536.267 1514.91 534.867 1528.24 533L1530.64 554C1518.11 556 1502.44 557.6 1483.64 558.8Z" fill="#1A73E8"/>
<path d="M1608.16 500.6C1608.16 491.4 1610.56 483.2 1615.36 476C1620.29 468.667 1627.63 462.933 1637.36 458.8C1647.23 454.533 1659.16 452.4 1673.16 452.4C1687.16 452.4 1699.03 454.533 1708.76 458.8C1718.63 462.933 1725.96 468.667 1730.76 476C1735.69 483.2 1738.16 491.4 1738.16 500.6C1738.16 509.8 1735.69 518.067 1730.76 525.4C1725.96 532.733 1718.69 538.533 1708.96 542.8C1699.23 546.933 1687.29 549 1673.16 549C1659.03 549 1647.09 546.933 1637.36 542.8C1627.63 538.533 1620.29 532.733 1615.36 525.4C1610.56 518.067 1608.16 509.8 1608.16 500.6ZM1637.16 503.2C1637.16 510.533 1640.16 516.467 1646.16 521C1652.29 525.4 1661.29 527.6 1673.16 527.6C1685.03 527.6 1693.96 525.4 1699.96 521C1706.09 516.467 1709.16 510.533 1709.16 503.2V498.2C1709.16 490.867 1706.09 484.933 1699.96 480.4C1693.96 475.867 1685.03 473.6 1673.16 473.6C1661.29 473.6 1652.29 475.867 1646.16 480.4C1640.16 484.933 1637.16 490.867 1637.16 498.2V503.2ZM1755.76 582.2V604.6H1590.56V582.2H1628.36V553H1654.76V582.2H1691.56V553H1717.96V582.2H1755.76Z" fill="#1A73E8"/>
<path d="M1225.6 832.8H1199V923.6H1172.2V746H1199V810.4H1225.6V832.8ZM1124.4 820.4C1127.07 820.4 1129.27 821.533 1131 823.8L1162.8 865.4L1142 883L1109.6 838.2C1109.2 837.4 1108.6 837 1107.8 837C1107.13 837 1106.47 837.4 1105.8 838.2C1102.2 845.133 1097.67 852.333 1092.2 859.8C1086.87 867.267 1079.87 876.067 1071.2 886.2L1050.6 868.8C1065.53 852.4 1076.2 837.6 1082.6 824.4C1089.13 811.067 1092.4 796.4 1092.4 780.4V757.8H1119.6V780.2C1119.6 796.867 1116.87 812.2 1111.4 826.2L1112.6 826.8L1117.4 823C1119.53 821.267 1121.87 820.4 1124.4 820.4Z" fill="#1A73E8"/>
<path d="M1404.12 788.4V810.8H1377.52V854.4H1350.72V746H1377.52V788.4H1404.12ZM1338.12 845.4C1326.79 847.4 1315.05 848.933 1302.92 850C1290.92 850.933 1275.85 851.4 1257.72 851.4H1239.12V791.4H1296.32V776.6H1238.72V755H1321.92V812.6H1264.72V830C1279.52 829.867 1292.25 829.333 1302.92 828.4C1313.72 827.467 1324.39 826.133 1334.92 824.4L1338.12 845.4ZM1378.72 896.2C1378.72 903.8 1376.45 910.4 1371.92 916C1367.39 921.733 1360.72 926.133 1351.92 929.2C1343.25 932.4 1332.85 934 1320.72 934C1308.59 934 1298.12 932.4 1289.32 929.2C1280.52 926.133 1273.85 921.733 1269.32 916C1264.79 910.4 1262.52 903.8 1262.52 896.2C1262.52 888.733 1264.79 882.2 1269.32 876.6C1273.85 870.867 1280.52 866.467 1289.32 863.4C1298.12 860.2 1308.59 858.6 1320.72 858.6C1332.85 858.6 1343.25 860.2 1351.92 863.4C1360.72 866.467 1367.39 870.867 1371.92 876.6C1376.45 882.2 1378.72 888.733 1378.72 896.2ZM1350.72 895C1350.72 890.333 1348.25 886.533 1343.32 883.6C1338.39 880.667 1330.85 879.2 1320.72 879.2C1310.45 879.2 1302.85 880.667 1297.92 883.6C1292.99 886.533 1290.52 890.333 1290.52 895V897.8C1290.52 902.333 1292.99 906.067 1297.92 909C1302.99 911.933 1310.59 913.4 1320.72 913.4C1330.85 913.4 1338.39 911.933 1343.32 909C1348.25 906.067 1350.72 902.333 1350.72 897.8V895Z" fill="#1A73E8"/>
<path d="M1569.44 746V923.6H1544.04V835.2H1531.64V918.8H1506.44V748.6H1531.64V813.2H1544.04V746H1569.44ZM1483.24 781.4H1428.84V759.6H1483.24V781.4ZM1410.44 794.2H1499.64V815.2H1480.84V816.6C1489.51 822.067 1493.84 832 1493.84 846.4C1493.84 858.8 1490.37 868.667 1483.44 876C1476.51 883.2 1467.17 886.8 1455.44 886.8C1443.71 886.8 1434.37 883.2 1427.44 876C1420.51 868.667 1417.04 858.8 1417.04 846.4C1417.04 832.533 1421.24 822.667 1429.64 816.8V815.2H1410.44V794.2ZM1469.04 835.2C1469.04 829.867 1467.84 825.733 1465.44 822.8C1463.04 819.867 1459.71 818.4 1455.44 818.4C1451.17 818.4 1447.84 819.867 1445.44 822.8C1443.04 825.733 1441.84 829.867 1441.84 835.2V848.4C1441.84 853.733 1443.04 857.867 1445.44 860.8C1447.84 863.733 1451.17 865.2 1455.44 865.2C1459.71 865.2 1463.04 863.733 1465.44 860.8C1467.84 857.867 1469.04 853.733 1469.04 848.4V835.2Z" fill="#1A73E8"/>
<path d="M1608.16 800.6C1608.16 791.4 1610.56 783.2 1615.36 776C1620.29 768.667 1627.63 762.933 1637.36 758.8C1647.23 754.533 1659.16 752.4 1673.16 752.4C1687.16 752.4 1699.03 754.533 1708.76 758.8C1718.63 762.933 1725.96 768.667 1730.76 776C1735.69 783.2 1738.16 791.4 1738.16 800.6C1738.16 809.8 1735.69 818.067 1730.76 825.4C1725.96 832.733 1718.69 838.533 1708.96 842.8C1699.23 846.933 1687.29 849 1673.16 849C1659.03 849 1647.09 846.933 1637.36 842.8C1627.63 838.533 1620.29 832.733 1615.36 825.4C1610.56 818.067 1608.16 809.8 1608.16 800.6ZM1637.16 803.2C1637.16 810.533 1640.16 816.467 1646.16 821C1652.29 825.4 1661.29 827.6 1673.16 827.6C1685.03 827.6 1693.96 825.4 1699.96 821C1706.09 816.467 1709.16 810.533 1709.16 803.2V798.2C1709.16 790.867 1706.09 784.933 1699.96 780.4C1693.96 775.867 1685.03 773.6 1673.16 773.6C1661.29 773.6 1652.29 775.867 1646.16 780.4C1640.16 784.933 1637.16 790.867 1637.16 798.2V803.2ZM1755.76 882.2V904.6H1590.56V882.2H1628.36V853H1654.76V882.2H1691.56V853H1717.96V882.2H1755.76Z" fill="#1A73E8"/>
</svg>

<svg xmlns="http://www.w3.org/2000/svg" width="1920" height="1080" fill="none"><path fill="#1A73E8" d="M149.001 170.6V192h60.2c-4.8 40.8-27.6 70-70.4 92l14.8 20.2c61.2-31 82.2-78.4 82.2-133.6h-86.8Zm161.6 51.4h-25.8v-70.4h-26.4v184h26.4v-91.8h25.8V222ZM356.585 169.2h-26.4v121.6h16c26.8 0 56.4-1.6 87-8l-2.6-21.6c-25.8 5-50.8 7-74 7.6v-99.6Zm138 52h-25.8v-69.6h-26.4v184h26.4V243h25.8v-21.8ZM541.97 190.2h59.6v-21.4h-85.8v123.4h15.6c32 0 57.2-1 85-6l-2.6-21.8c-23.8 4-45.6 5.4-71.8 5.8v-80Zm137.6 29.6h-26.8v-68h-26.4v184.6h26.4v-94.8h26.8v-21.8ZM726.154 238.6h58.4v-71.2h-84.6v21h58.6v29.4h-58.4v76h15.6c32 0 57.4-1.2 85-6.2l-2.4-21.4c-24 4.2-45.8 5.6-72.2 5.8v-33.4Zm137.4-17.4h-26.4v-69.6h-26.4v184.8h26.4V243h26.4v-21.8ZM208.201 527.8h-36.2v-26.2h36.2v26.2Zm26-72.8h-26v26.2h-36.2V455h-26v93.6h88.2V455Zm-41 109h-26.4v58.8h125.4v-21h-99V564Zm92.4-70.2v-52h-26.4v135.6h26.4v-62h24.4v-21.6h-24.4ZM332.985 460.6V482h60.2c-4.8 40.8-27.6 70-70.4 92l14.8 20.2c61.2-31 82.2-78.4 82.2-133.6h-86.8Zm161.6 51.4h-25.8v-70.4h-26.4v184h26.4v-91.8h25.8V512ZM567.57 469.4c13 0 21.8 6.6 21.8 17.8 0 11.4-8.8 17.8-21.8 17.8s-22.2-6.4-22.2-17.8c0-11.2 9.2-17.8 22.2-17.8Zm0 55.6c27 0 46.6-15.4 46.6-37.8 0-22.2-19.6-37.8-46.6-37.8-27.2 0-46.8 15.6-46.8 37.8 0 22.4 19.6 37.8 46.8 37.8Zm58.8 4.8c-39.2 5.4-84.2 5.6-118.4 5.6l3 21.4c12.8 0 27.2 0 42.2-.6v64.4h26.4v-65.8c16-1.2 32.2-2.8 48.4-5.8l-1.6-19.2Zm11.8-88v123.8h-37v20h37v40.2h26.4v-184h-26.4ZM755.554 548c6.4 1.2 13 1.8 20.2 1.8 7.2 0 14-.6 20.4-1.8v35.2h-40.6V548Zm20.2-76.4c25.6 0 42.8 10.4 42.8 28.8 0 18.2-17.2 28.8-42.8 28.8-25.6 0-42.6-10.6-42.6-28.8 0-18.4 17-28.8 42.6-28.8Zm46.6 111.6v-45c13.8-8.6 22.2-21.8 22.2-37.8 0-30.2-29-49.6-68.8-49.6-39.6 0-68.6 19.4-68.6 49.6-.2 16 8.2 29.2 22.2 37.8v45h-36.8v21.4h166.8v-21.4h-37ZM208.401 746h-26.6v26.8c0 34.2-14 69.4-45 84l15.8 21.4c20.8-10.2 34.6-29.6 42.6-53 7.6 22 20.6 39.8 39.8 49.6l16-20.8c-29.6-14.6-42.6-48-42.6-81.2V746Zm103.2 56.6h-26.8v-70.8h-26.4V916h26.4v-91.4h26.8v-22ZM331.185 778.4v56.8h15.8c36.8 0 60.2-.8 85.8-5.6l-2.2-21.2c-23 4.2-43.2 5.4-73.2 5.6v-16h57.6v-55.4h-84v21.2h58v14.6h-57.8Zm77.8 117.6c-24 0-36.4-4.6-36.4-14.8 0-10.2 12.4-14.8 36.4-14.8s36.4 4.6 36.4 14.8c0 10.2-12.4 14.8-36.4 14.8Zm0-49.8c-38.4 0-62.4 12.8-62.4 35 0 22 24 35 62.4 35s62.4-13 62.4-35c0-22.2-24-35-62.4-35Zm60.6-71.4V732h-26.4v110.4h26.4v-46h24.4v-21.6h-24.4ZM552.77 854.4c-10 0-17.2-8-17.2-21.8s7.2-22 17.2-22 17.2 8.2 17.2 22-7.2 21.8-17.2 21.8Zm0-65.8c-23.6 0-40.4 18.2-40.4 44 0 25.6 16.8 43.8 40.4 43.8 23.6 0 40.4-18.2 40.4-43.8 0-25.8-16.8-44-40.4-44Zm13-51.8h-26v22.8h-31.4v21h88v-21h-30.6v-22.8Zm75.8-5.2v75.2h-14v-71.6h-24.6v173h24.6V828h14v87.8h25V731.6h-25ZM755.554 838c6.4 1.2 13 1.8 20.2 1.8 7.2 0 14-.6 20.4-1.8v35.2h-40.6V838Zm20.2-76.4c25.6 0 42.8 10.4 42.8 28.8 0 18.2-17.2 28.8-42.8 28.8-25.6 0-42.6-10.6-42.6-28.8 0-18.4 17-28.8 42.6-28.8Zm46.6 111.6v-45c13.8-8.6 22.2-21.8 22.2-37.8 0-30.2-29-49.6-68.8-49.6-39.6 0-68.6 19.4-68.6 49.6-.2 16 8.2 29.2 22.2 37.8v45h-36.8v21.4h166.8v-21.4h-37ZM1225.6 232.8H1199v90.8h-26.8V146h26.8v64.4h26.6v22.4ZM1062.2 160h83.4v30.2c0 15.333-2.33 28.4-7 39.2-4.67 10.667-12.27 20.533-22.8 29.6-10.4 8.933-25.07 18.6-44 29l-15.8-20.4c16.8-8.667 29.6-16.6 38.4-23.8 8.8-7.2 15-14.933 18.6-23.2 3.6-8.267 5.4-18.4 5.4-30.4v-7.6h-56.2V160ZM1403.92 232.8h-26.6v90.8h-26.8V146h26.8v64.4h26.6v22.4Zm-68 15.4 3.2 21.8c-22.93 4.533-50.2 6.8-81.8 6.8h-18.4V160.2h26.6v94.2c26.93-.4 50.4-2.467 70.4-6.2ZM1582.24 232.8h-26.6v90.8h-26.8V146h26.8v64.4h26.6v22.4Zm-67.2 19.2 3.2 21.4c-10.8 2-22.6 3.6-35.4 4.8-12.67 1.067-27.87 1.6-45.6 1.6h-18.6V160.2h84v22.4h-57.2v75c27.47-.4 50.67-2.267 69.6-5.6ZM1760.56 232.8h-26.6v90.8h-26.8V146h26.8v64.4h26.6v22.4Zm-66.8 22 3.2 21.4c-11.33 2-23.2 3.533-35.6 4.6-12.27.933-27.6 1.4-46 1.4h-18.8v-75.6h56.6V181h-57v-22.2h83.6v69.6h-56.6v32c14.8-.133 27.6-.667 38.4-1.6a433.46 433.46 0 0 0 32.2-4ZM1225.8 495.6V518h-26.4v60.8h-26.8V446h26.8v49.6h26.4Zm-79.8 54.6h-86.8V457h26v26.6h34.8V457h26v93.2Zm-26-44.8h-34.8v22.8h34.8v-22.8Zm-8.4 99.8h92v22h-102c-11.33 0-17-5.667-17-17v-45h27v40ZM1403.92 532.8h-26.6v90.8h-26.8V446h26.8v64.4h26.6v22.4Zm-163.4-72.8h83.4v30.2c0 15.333-2.33 28.4-7 39.2-4.67 10.667-12.27 20.533-22.8 29.6-10.4 8.933-25.07 18.6-44 29l-15.8-20.4c16.8-8.667 29.6-16.6 38.4-23.8 8.8-7.2 15-14.933 18.6-23.2 3.6-8.267 5.4-18.4 5.4-30.4v-7.6h-56.2V460ZM1567.84 446v177.6h-26.8V587h-36.2v-21.4h36.2V446h26.8Zm-146.4 43.8c0-7.733 2.07-14.533 6.2-20.4 4.27-5.867 10.07-10.4 17.4-13.6 7.47-3.2 16-4.8 25.6-4.8 9.6 0 18.07 1.6 25.4 4.8 7.47 3.2 13.27 7.733 17.4 13.6 4.27 5.867 6.4 12.667 6.4 20.4 0 7.733-2.13 14.533-6.4 20.4-4.13 5.733-9.93 10.2-17.4 13.4-7.33 3.2-15.8 4.8-25.4 4.8-9.6 0-18.13-1.6-25.6-4.8-7.33-3.2-13.13-7.667-17.4-13.4-4.13-5.867-6.2-12.667-6.2-20.4Zm27.6 1.4c0 4.933 1.93 8.867 5.8 11.8 4 2.933 9.27 4.4 15.8 4.4 6.53 0 11.73-1.467 15.6-4.4 4-2.933 6-6.867 6-11.8v-3c0-4.933-2-8.867-6-11.8-3.87-2.933-9.07-4.4-15.6-4.4-6.53 0-11.8 1.467-15.8 4.4-3.87 2.933-5.8 6.867-5.8 11.8v3Zm34.6 67.6V622h-26.6v-61.8c-19.2.533-33.8.8-43.8.8l-2.2-22.4c22.67 0 44.53-.467 65.6-1.4 21.07-.933 38.27-2.333 51.6-4.2l2.4 21c-12.53 2-28.2 3.6-47 4.8ZM1608.16 500.6c0-9.2 2.4-17.4 7.2-24.6 4.93-7.333 12.27-13.067 22-17.2 9.87-4.267 21.8-6.4 35.8-6.4 14 0 25.87 2.133 35.6 6.4 9.87 4.133 17.2 9.867 22 17.2 4.93 7.2 7.4 15.4 7.4 24.6 0 9.2-2.47 17.467-7.4 24.8-4.8 7.333-12.07 13.133-21.8 17.4-9.73 4.133-21.67 6.2-35.8 6.2-14.13 0-26.07-2.067-35.8-6.2-9.73-4.267-17.07-10.067-22-17.4-4.8-7.333-7.2-15.6-7.2-24.8Zm29 2.6c0 7.333 3 13.267 9 17.8 6.13 4.4 15.13 6.6 27 6.6s20.8-2.2 26.8-6.6c6.13-4.533 9.2-10.467 9.2-17.8v-5c0-7.333-3.07-13.267-9.2-17.8-6-4.533-14.93-6.8-26.8-6.8-11.87 0-20.87 2.267-27 6.8-6 4.533-9 10.467-9 17.8v5Zm118.6 79v22.4h-165.2v-22.4h37.8V553h26.4v29.2h36.8V553h26.4v29.2h37.8ZM1225.6 832.8H1199v90.8h-26.8V746h26.8v64.4h26.6v22.4Zm-101.2-12.4c2.67 0 4.87 1.133 6.6 3.4l31.8 41.6L1142 883l-32.4-44.8c-.4-.8-1-1.2-1.8-1.2-.67 0-1.33.4-2 1.2-3.6 6.933-8.13 14.133-13.6 21.6-5.33 7.467-12.33 16.267-21 26.4l-20.6-17.4c14.93-16.4 25.6-31.2 32-44.4 6.53-13.333 9.8-28 9.8-44v-22.6h27.2v22.4c0 16.667-2.73 32-8.2 46l1.2.6 4.8-3.8c2.13-1.733 4.47-2.6 7-2.6ZM1404.12 788.4v22.4h-26.6v43.6h-26.8V746h26.8v42.4h26.6Zm-66 57c-11.33 2-23.07 3.533-35.2 4.6-12 .933-27.07 1.4-45.2 1.4h-18.6v-60h57.2v-14.8h-57.6V755h83.2v57.6h-57.2V830c14.8-.133 27.53-.667 38.2-1.6 10.8-.933 21.47-2.267 32-4l3.2 21Zm40.6 50.8c0 7.6-2.27 14.2-6.8 19.8-4.53 5.733-11.2 10.133-20 13.2-8.67 3.2-19.07 4.8-31.2 4.8-12.13 0-22.6-1.6-31.4-4.8-8.8-3.067-15.47-7.467-20-13.2-4.53-5.6-6.8-12.2-6.8-19.8 0-7.467 2.27-14 6.8-19.6 4.53-5.733 11.2-10.133 20-13.2 8.8-3.2 19.27-4.8 31.4-4.8 12.13 0 22.53 1.6 31.2 4.8 8.8 3.067 15.47 7.467 20 13.2 4.53 5.6 6.8 12.133 6.8 19.6Zm-28-1.2c0-4.667-2.47-8.467-7.4-11.4s-12.47-4.4-22.6-4.4c-10.27 0-17.87 1.467-22.8 4.4-4.93 2.933-7.4 6.733-7.4 11.4v2.8c0 4.533 2.47 8.267 7.4 11.2 5.07 2.933 12.67 4.4 22.8 4.4s17.67-1.467 22.6-4.4c4.93-2.933 7.4-6.667 7.4-11.2V895ZM1569.44 746v177.6h-25.4v-88.4h-12.4v83.6h-25.2V748.6h25.2v64.6h12.4V746h25.4Zm-86.2 35.4h-54.4v-21.8h54.4v21.8Zm-72.8 12.8h89.2v21h-18.8v1.4c8.67 5.467 13 15.4 13 29.8 0 12.4-3.47 22.267-10.4 29.6-6.93 7.2-16.27 10.8-28 10.8s-21.07-3.6-28-10.8c-6.93-7.333-10.4-17.2-10.4-29.6 0-13.867 4.2-23.733 12.6-29.6v-1.6h-19.2v-21Zm58.6 41c0-5.333-1.2-9.467-3.6-12.4-2.4-2.933-5.73-4.4-10-4.4s-7.6 1.467-10 4.4c-2.4 2.933-3.6 7.067-3.6 12.4v13.2c0 5.333 1.2 9.467 3.6 12.4 2.4 2.933 5.73 4.4 10 4.4s7.6-1.467 10-4.4c2.4-2.933 3.6-7.067 3.6-12.4v-13.2ZM1608.16 800.6c0-9.2 2.4-17.4 7.2-24.6 4.93-7.333 12.27-13.067 22-17.2 9.87-4.267 21.8-6.4 35.8-6.4 14 0 25.87 2.133 35.6 6.4 9.87 4.133 17.2 9.867 22 17.2 4.93 7.2 7.4 15.4 7.4 24.6 0 9.2-2.47 17.467-7.4 24.8-4.8 7.333-12.07 13.133-21.8 17.4-9.73 4.133-21.67 6.2-35.8 6.2-14.13 0-26.07-2.067-35.8-6.2-9.73-4.267-17.07-10.067-22-17.4-4.8-7.333-7.2-15.6-7.2-24.8Zm29 2.6c0 7.333 3 13.267 9 17.8 6.13 4.4 15.13 6.6 27 6.6s20.8-2.2 26.8-6.6c6.13-4.533 9.2-10.467 9.2-17.8v-5c0-7.333-3.07-13.267-9.2-17.8-6-4.533-14.93-6.8-26.8-6.8-11.87 0-20.87 2.267-27 6.8-6 4.533-9 10.467-9 17.8v5Zm118.6 79v22.4h-165.2v-22.4h37.8V853h26.4v29.2h36.8V853h26.4v29.2h37.8Z"/></svg>
